X:825
T: Man from Dungannon
S: B.Breathnach: "Ceol Rince na hEireann" II/242 (gan ainm)
Z: B.Black
L: 1/8
M: 4/4
R: reel
K: Ador
gf|eA (3AAA B2 GB|d2 ef gfed|eA (3AAA B2 GB|d2 cA B2 gf|
eA (3AAA B2 GB|d2 ef g2 fg|afge fded|cABG A2 :|
fg|a2 (3aaa fadg|fa (3aaa fa d2|eg (3ggg egcg|eg (3ggg egcg|
fa (3aaa fadg|fage f2 (3efg|afge fded|cABG A2 :|
